packages/core/src/svgs/tokens/branded/TITAN.svg

<svg width="24" height="24" viewBox="0 0 24 24" fill="none" xmlns="http://www.w3.org/2000/svg">
<path fill-rule="evenodd" clip-rule="evenodd" d="M19.3684 12C19.3684 16.0694 16.0694 19.3684 12 19.3684C10.969 19.3695 9.94935 19.1538 9.00722 18.7352C8.06511 18.3165 7.22162 17.7044 6.53154 16.9384C6.01576 17.0505 5.5405 17.1426 5.11733 17.2152C4.14839 17.3216 2.16998 17.2063 2.00893 15.8968C1.86262 14.7047 3.54786 13.1653 4.6405 12.3695C4.63447 12.2463 4.63148 12.1232 4.63154 12C4.63154 7.93055 7.93048 4.63161 12 4.63161C14.0694 4.63161 15.9394 5.48425 17.2778 6.85792C22.4378 6.03055 22.3551 8.1237 21.6646 9.27897C21.0662 10.1222 20.2757 10.8973 19.3578 11.6058C19.3647 11.7363 19.3684 11.8679 19.3684 12ZM12 17.2631C10.8842 17.2631 9.84988 16.9158 8.99889 16.3241C10.3469 15.9495 11.6763 15.5108 12.9825 15.0095L12.0247 13.2079L11.6742 13.3679C10.5194 13.9079 7.38363 15.0505 4.07419 15.3015C4.59681 14.82 5.79786 13.7873 6.83522 13.2227L6.87733 13.2132C6.7837 12.8156 6.73654 12.4085 6.7368 12C6.7368 9.09317 9.0931 6.73687 12 6.73687C14.4567 6.73687 16.521 8.42055 17.1004 10.6969C16.4716 11.0918 15.8228 11.4542 15.1567 11.7826L14.6078 12.0327L15.1341 14.0984C15.8226 13.7801 16.4973 13.433 17.1567 13.0585C16.6667 15.4579 14.5442 17.2631 12 17.2631ZM18.9042 9.42001C18.8057 9.15687 18.6921 8.8996 18.5641 8.64948C19.0025 8.60212 19.5957 8.54264 19.8978 8.52843C19.7088 8.73054 19.3725 9.04422 18.9042 9.42001Z" fill="url(#paint0_linear_364_10122)"/>
<path fill-rule="evenodd" clip-rule="evenodd" d="M13.5789 15.6842C14.1372 15.6842 14.6727 15.4624 15.0676 15.0676C15.4624 14.6728 15.6842 14.1373 15.6842 13.5789C15.6842 13.0206 15.4624 12.4851 15.0676 12.0903C14.6727 11.6954 14.1372 11.4736 13.5789 11.4736C13.0205 11.4736 12.4851 11.6954 12.0902 12.0903C11.6954 12.4851 11.4736 13.0206 11.4736 13.5789C11.4736 14.1373 11.6954 14.6728 12.0902 15.0676C12.4851 15.4624 13.0205 15.6842 13.5789 15.6842ZM13.5789 14.6316C13.858 14.6316 14.1258 14.5207 14.3232 14.3232C14.5206 14.1259 14.6315 13.8581 14.6315 13.5789C14.6315 13.2998 14.5206 13.0321 14.3232 12.8346C14.1258 12.6372 13.858 12.5263 13.5789 12.5263C13.2996 12.5263 13.0319 12.6372 12.8346 12.8346C12.6371 13.0321 12.5262 13.2998 12.5262 13.5789C12.5262 13.8581 12.6371 14.1259 12.8346 14.3232C13.0319 14.5207 13.2996 14.6316 13.5789 14.6316Z" fill="url(#paint1_linear_364_10122)"/>
<defs>
<linearGradient id="paint0_linear_364_10122" x1="2.63367" y1="16.4321" x2="22.1072" y2="7.86739" gradientUnits="userSpaceOnUse">
<stop stop-color="#04D9FF"/>
<stop offset="0.782" stop-color="#445CFE"/>
<stop offset="1" stop-color="#7269EF"/>
</linearGradient>
<linearGradient id="paint1_linear_364_10122" x1="11.1384" y1="14.9261" x2="15.9225" y2="12.7508" gradientUnits="userSpaceOnUse">
<stop stop-color="#05D5FF"/>
<stop offset="1" stop-color="#3A5EF4"/>
</linearGradient>
</defs>
</svg>

<svg xmlns="http://www.w3.org/2000/svg" width="24" height="24" fill="none" viewBox="0 0 24 24">
    <path fill="url(#TITAN__a)" fill-rule="evenodd" d="M19.368 12a7.368 7.368 0 0 1-12.836 4.938 31 31 0 0 1-1.415.277c-.969.107-2.947-.009-3.108-1.318-.146-1.192 1.539-2.732 2.632-3.527a7.368 7.368 0 0 1 12.637-5.512c5.16-.827 5.077 1.266 4.387 2.421-.599.843-1.39 1.618-2.307 2.327q.01.196.01.394M12 17.263a5.24 5.24 0 0 1-3.001-.939 44 44 0 0 0 3.983-1.315l-.957-1.801-.35.16c-1.156.54-4.291 1.682-7.6 1.934.522-.482 1.723-1.515 2.76-2.08l.042-.009A5.263 5.263 0 0 1 17.1 10.697q-.943.593-1.943 1.086l-.55.25.527 2.065a27 27 0 0 0 2.023-1.04A5.265 5.265 0 0 1 12 17.264m6.904-7.843a7 7 0 0 0-.34-.77 29 29 0 0 1 1.334-.122c-.19.203-.526.516-.994.892" clip-rule="evenodd"/>
    <path fill="url(#TITAN__b)" fill-rule="evenodd" d="M13.579 15.684a2.106 2.106 0 1 0 0-4.211 2.106 2.106 0 0 0 0 4.211m0-1.052a1.052 1.052 0 1 0 0-2.105 1.052 1.052 0 0 0 0 2.105" clip-rule="evenodd"/>
    <defs>
        <linearGradient id="TITAN__a" x1="2.634" x2="22.107" y1="16.432" y2="7.867" gradientUnits="userSpaceOnUse">
            <stop stop-color="#04D9FF"/>
            <stop offset=".782" stop-color="#445CFE"/>
            <stop offset="1" stop-color="#7269EF"/>
        </linearGradient>
        <linearGradient id="TITAN__b" x1="11.138" x2="15.922" y1="14.926" y2="12.751" gradientUnits="userSpaceOnUse">
            <stop stop-color="#05D5FF"/>
            <stop offset="1" stop-color="#3A5EF4"/>
        </linearGradient>
    </defs>
</svg>
